X: 33502
T: Railway, The
R: hornpipe
M: 4/4
K: Dmajor
DFA=c BGGg|fdec dAA=c|BGBG AFDF|GECE cECE|
DFA=c BGGg|fdec dAA=c|BGBG AFDF|GECE D3 z|
Adfd geeg|fdfd AFDd|Adfd geeg|fdec d3 z|
Adfd geeg|fdfd AFD=c|BGBG AFDF|GECE D3 z ]|

